public/static/img/market/trans.svg

<svg xmlns="http://www.w3.org/2000/svg" width="18" height="18" viewBox="0 0 18 18" fill="none">
  <path d="M4.42969 8.12114H13.6406C13.9904 8.12114 14.2734 7.83813 14.2734 7.48833C14.2734 7.13853 13.9904 6.85552 13.6406 6.85552H5.96602L7.00312 5.81841C7.25098 5.57056 7.25098 5.16978 7.00312 4.92368C6.75527 4.67583 6.35449 4.67583 6.1084 4.92368L4.04824 6.98208C3.89531 7.0981 3.79688 7.28091 3.79688 7.48833C3.79688 7.83813 4.07988 8.12114 4.42969 8.12114ZM14.0977 9.91411C13.9482 9.7647 13.7408 9.70493 13.5457 9.73833H4.42969C4.07988 9.73833 3.79688 10.0213 3.79688 10.3711C3.79688 10.7209 4.07988 11.004 4.42969 11.004H12.1131L11.0848 12.0323C10.8369 12.2801 10.8369 12.6809 11.0848 12.927C11.2078 13.05 11.3695 13.1116 11.533 13.1116C11.6965 13.1116 11.8564 13.05 11.9812 12.927L14.0977 10.8106C14.3438 10.5627 14.3438 10.162 14.0977 9.91411Z" fill="#00A609"/>
</svg>

<svg xmlns="http://www.w3.org/2000/svg" width="18" height="18" fill="none"><path d="M4.43 8.121h9.21a.632.632 0 1 0 0-1.265H5.967l1.037-1.038a.631.631 0 0 0 0-.894.631.631 0 0 0-.895 0l-2.06 2.058a.633.633 0 0 0 .382 1.14Zm9.668 1.793a.63.63 0 0 0-.552-.176H4.43a.632.632 0 1 0 0 1.266h7.683l-1.028 1.028a.631.631 0 0 0 .448 1.08.634.634 0 0 0 .448-.185l2.117-2.116a.637.637 0 0 0 0-.897Z" fill="#00A609"/></svg>
